svgs/light/keyboard-brightness.svg

<svg xmlns="http://www.w3.org/2000/svg" viewBox="0 0 640 512"><!--! Font Awesome Pro 6.0.0-alpha3 by @fontawesome - https://fontawesome.com License - https://fontawesome.com/license (Commercial License) --><path d="M432 384h-224C199.2 384 192 391.2 192 400S199.2 416 208 416h224c8.844 0 16-7.156 16-16S440.8 384 432 384zM112 384h-96C7.156 384 0 391.2 0 400S7.156 416 16 416h96C120.8 416 128 408.8 128 400S120.8 384 112 384zM624 384h-96c-8.844 0-16 7.156-16 16s7.156 16 16 16h96c8.844 0 16-7.156 16-16S632.8 384 624 384zM206.9 286.9c6.25-6.25 6.25-16.38 0-22.62l-90.53-90.5c-6.25-6.25-16.38-6.25-22.62 0s-6.25 16.38 0 22.62l90.53 90.5c3.125 3.125 7.219 4.688 11.31 4.688S203.8 289.1 206.9 286.9zM320 240c8.844 0 16-7.156 16-16V96c0-8.844-7.156-16-16-16S304 87.16 304 96v128C304 232.8 311.2 240 320 240zM546.3 173.7c-6.25-6.25-16.38-6.25-22.62 0l-90.53 90.5c-6.25 6.25-6.25 16.38 0 22.62c3.125 3.125 7.219 4.688 11.31 4.688s8.188-1.562 11.31-4.688l90.53-90.5C552.5 190.1 552.5 179.1 546.3 173.7z"/></svg>

<svg xmlns="http://www.w3.org/2000/svg" viewBox="0 0 640 512"><!--! Font Awesome Pro 6.4.2 by @fontawesome - https://fontawesome.com License - https://fontawesome.com/license (Commercial License) Copyright 2023 Fonticons, Inc. --><path d="M115.3 172.7c-6.2-6.2-16.4-6.2-22.6 0s-6.2 16.4 0 22.6l88 88c6.2 6.2 16.4 6.2 22.6 0s6.2-16.4 0-22.6l-88-88zM304 224c0 8.8 7.2 16 16 16s16-7.2 16-16V96c0-8.8-7.2-16-16-16s-16 7.2-16 16V224zm132.7 36.7c-6.2 6.2-6.2 16.4 0 22.6s16.4 6.2 22.6 0l88-88c6.2-6.2 6.2-16.4 0-22.6s-16.4-6.2-22.6 0l-88 88zM0 400c0 8.8 7.2 16 16 16h96c8.8 0 16-7.2 16-16s-7.2-16-16-16H16c-8.8 0-16 7.2-16 16zm208-16c-8.8 0-16 7.2-16 16s7.2 16 16 16H432c8.8 0 16-7.2 16-16s-7.2-16-16-16H208zm320 0c-8.8 0-16 7.2-16 16s7.2 16 16 16h96c8.8 0 16-7.2 16-16s-7.2-16-16-16H528z"/></svg>
